images/portal/5886.svg

<?xml version="1.0" standalone="no"?><!DOCTYPE svg PUBLIC "-//W3C//DTD SVG 1.1//EN" "http://www.w3.org/Graphics/SVG/1.1/DTD/svg11.dtd"><svg xmlns:xlink="http://www.w3.org/1999/xlink" version="1.1" class="highcharts-root" style="font-family:arial;font-size:12px;" xmlns="http://www.w3.org/2000/svg" width="320" height="208"><desc>Created with Highstock 5.0.14</desc><defs><clipPath id="highcharts-zj9thct-6"><rect x="0" y="0" width="268" height="123" fill="none"></rect></clipPath><clipPath id="highcharts-zj9thct-7"><rect x="0" y="0" width="268" height="123" fill="none"></rect></clipPath></defs><rect fill="#fbfbfb" class="highcharts-background" x="0" y="0" width="320" height="208" rx="0" ry="0"></rect><rect fill="none" class="highcharts-plot-background" x="49" y="56" width="268" height="123"></rect><g class="highcharts-pane-group"></g><g class="highcharts-grid highcharts-xaxis-grid "><path fill="none" class="highcharts-grid-line" d="M 51.5 56 L 51.5 179" opacity="1"></path><path fill="none" class="highcharts-grid-line" d="M 116.5 56 L 116.5 179" opacity="1"></path><path fill="none" class="highcharts-grid-line" d="M 182.5 56 L 182.5 179" opacity="1"></path><path fill="none" class="highcharts-grid-line" d="M 248.5 56 L 248.5 179" opacity="1"></path><path fill="none" class="highcharts-grid-line" d="M 313.5 56 L 313.5 179" opacity="1"></path></g><g class="highcharts-grid highcharts-yaxis-grid "><path fill="none" stroke="#B9CFD7" stroke-width="0.5" class="highcharts-grid-line" d="M 49 179.25 L 317 179.25" opacity="1"></path><path fill="none" stroke="#B9CFD7" stroke-width="0.5" class="highcharts-grid-line" d="M 49 118.25 L 317 118.25" opacity="1"></path><path fill="none" stroke="#B9CFD7" stroke-width="0.5" class="highcharts-grid-line" d="M 49 55.75 L 317 55.75" opacity="1"></path></g><rect fill="none" class="highcharts-plot-border" x="49" y="56" width="268" height="123"></rect><g class="highcharts-axis highcharts-xaxis "><path fill="none" class="highcharts-axis-line" stroke="#B9CFD7" stroke-width="0.5" d="M 49 179.25 L 317 179.25"></path></g><g class="highcharts-axis highcharts-yaxis "><path fill="none" class="highcharts-axis-line" d="M 49 56 L 49 179"></path></g><g class="highcharts-series-group"><g class="highcharts-series highcharts-series-0 highcharts-line-series highcharts-color-undefined " transform="translate(49,56) scale(1 1)" clip-path="url(#highcharts-zj9thct-7)"><path fill="none" d="M 2.6274509803898 14.513999999999996 L 35.470588235292 14.513999999999996 L 68.313725490195 15.006 L 101.1568627451 15.006 L 134 15.006 L 166.8431372549 15.006 L 199.68627450981 22.14 L 232.52941176471 22.14 L 265.37254901961 21.894000000000005" class="highcharts-graph" stroke="#007A2F" stroke-width="2" stroke-linejoin="round" stroke-linecap="round"></path></g><g class="highcharts-markers highcharts-series-0 highcharts-line-series highcharts-color-undefined " transform="translate(49,56) scale(1 1)" clip-path="none"><path fill="#007A2F" d="M 6 15 A 4 4 0 1 1 5.999998000000167 14.996000000666664 Z" class="highcharts-point"></path><path fill="#007A2F" d="M 39 15 A 4 4 0 1 1 38.99999800000017 14.996000000666664 Z" class="highcharts-point"></path><path fill="#007A2F" d="M 72 15 A 4 4 0 1 1 71.99999800000016 14.996000000666664 Z" class="highcharts-point"></path><path fill="#007A2F" d="M 105 15 A 4 4 0 1 1 104.99999800000016 14.996000000666664 Z" class="highcharts-point"></path><path fill="#007A2F" d="M 138 15 A 4 4 0 1 1 137.99999800000018 14.996000000666664 Z" class="highcharts-point"></path><path fill="#007A2F" d="M 170 15 A 4 4 0 1 1 169.99999800000018 14.996000000666664 Z" class="highcharts-point"></path><path fill="#007A2F" d="M 203 22 A 4 4 0 1 1 202.99999800000018 21.996000000666665 Z" class="highcharts-point"></path><path fill="#007A2F" d="M 236 22 A 4 4 0 1 1 235.99999800000018 21.996000000666665 Z" class="highcharts-point"></path><path fill="#007A2F" d="M 269 22 A 4 4 0 1 1 268.9999980000002 21.996000000666665 Z" class="highcharts-point"></path></g></g><text x="3" text-anchor="start" class="highcharts-title" style="color:#000000;font-size:10px;font-weight:bold;fill:#000000;" y="22"><tspan>Anteil Landwirtschaftsfläche</tspan></text><text x="3" text-anchor="start" class="highcharts-subtitle" style="color:#000000;font-size:10px;font-weight:normal;font-family:arial;fill:#000000;" y="40"><tspan>gemäss Zonenplan</tspan></text><g class="highcharts-data-labels highcharts-series-0 highcharts-line-series highcharts-color-undefined " visibility="visible" transform="translate(49,56) scale(1 1)"><g class="highcharts-label highcharts-data-label highcharts-data-label-color-undefined " transform="translate(-5,15)"><text x="5" style="font-size:10px;font-weight:normal;color:#000000;fill:#000000;" y="15"><tspan x="5" y="15" class="highcharts-text-outline" fill="#FFFFFF" stroke="#FFFFFF" stroke-width="2px" stroke-linejoin="round" style="">441</tspan><tspan x="5" y="15">441</tspan></text></g><g class="highcharts-label highcharts-data-label highcharts-data-label-color-undefined " transform="translate(30,5)"><text x="5" style="font-size:10px;font-weight:normal;color:#000000;fill:#000000;" y="15"></text></g><g class="highcharts-label highcharts-data-label highcharts-data-label-color-undefined " transform="translate(63,5)"><text x="5" style="font-size:10px;font-weight:normal;color:#000000;fill:#000000;" y="15"></text></g><g class="highcharts-label highcharts-data-label highcharts-data-label-color-undefined " transform="translate(96,5)"><text x="5" style="font-size:10px;font-weight:normal;color:#000000;fill:#000000;" y="15"></text></g><g class="highcharts-label highcharts-data-label highcharts-data-label-color-undefined " transform="translate(129,5)"><text x="5" style="font-size:10px;font-weight:normal;color:#000000;fill:#000000;" y="15"></text></g><g class="highcharts-label highcharts-data-label highcharts-data-label-color-undefined " transform="translate(162,5)"><text x="5" style="font-size:10px;font-weight:normal;color:#000000;fill:#000000;" y="15"></text></g><g class="highcharts-label highcharts-data-label highcharts-data-label-color-undefined " transform="translate(195,12)"><text x="5" style="font-size:10px;font-weight:normal;color:#000000;fill:#000000;" y="15"></text></g><g class="highcharts-label highcharts-data-label highcharts-data-label-color-undefined " transform="translate(228,12)"><text x="5" style="font-size:10px;font-weight:normal;color:#000000;fill:#000000;" y="15"></text></g><g class="highcharts-label highcharts-data-label highcharts-data-label-color-undefined " transform="translate(246,-1)"><text x="5" style="font-size:10px;font-weight:normal;color:#000000;fill:#000000;" y="15"><tspan x="5" y="15" class="highcharts-text-outline" fill="#FFFFFF" stroke="#FFFFFF" stroke-width="2px" stroke-linejoin="round">411</tspan><tspan x="5" y="15">411</tspan></text></g></g><g class="highcharts-axis-labels highcharts-xaxis-labels "><text x="51.62745098038982" style="color:#000000;cursor:default;font-size:10;fill:#000000;" text-anchor="middle" transform="translate(0,0)" y="199" opacity="1">2008</text><text x="117.3137254901949" style="color:#000000;cursor:default;font-size:10;fill:#000000;" text-anchor="middle" transform="translate(0,0)" y="199" opacity="1">2010</text><text x="183" style="color:#000000;cursor:default;font-size:10;fill:#000000;" text-anchor="middle" transform="translate(0,0)" y="199" opacity="1">2012</text><text x="248.6862745098051" style="color:#000000;cursor:default;font-size:10;fill:#000000;" text-anchor="middle" transform="translate(0,0)" y="199" opacity="1">2014</text><text x="305.90625" style="color:#000000;cursor:default;font-size:10;fill:#000000;" text-anchor="middle" transform="translate(0,0)" y="199" opacity="1">2016</text></g><g class="highcharts-axis-labels highcharts-yaxis-labels "><text x="34" style="color:#000000;cursor:default;font-size:10;fill:#000000;" text-anchor="end" transform="translate(0,0)" y="185" opacity="1"><tspan>0 ha</tspan></text><text x="34" style="color:#000000;cursor:default;font-size:10;fill:#000000;" text-anchor="end" transform="translate(0,0)" y="123" opacity="1"><tspan>250 ha</tspan></text><text x="34" style="color:#000000;cursor:default;font-size:10;fill:#000000;" text-anchor="end" transform="translate(0,0)" y="62" opacity="1"><tspan>500 ha</tspan></text></g><text x="10" class="highcharts-credits" text-anchor="start" style="cursor:default;color:#000000;font-size:10px;fill:#000000;" y="203"><tspan>Quelle:</tspan></text></svg>

<svg class="highcharts-root" xmlns="http://www.w3.org/2000/svg" width="320" height="208" font-family="arial" font-size="12">
    <defs>
        <clipPath id="a">
            <path fill="none" d="M0 0h268v123H0z"/>
        </clipPath>
    </defs>
    <rect fill="#fbfbfb" class="highcharts-background" width="320" height="208" rx="0" ry="0"/>
    <path fill="none" class="highcharts-plot-background" d="M49 56h268v123H49z"/>
    <g class="highcharts-grid highcharts-xaxis-grid">
        <path fill="none" class="highcharts-grid-line" d="M51.5 56v123m65-123v123m66-123v123m66-123v123m65-123v123"/>
    </g>
    <g class="highcharts-grid highcharts-yaxis-grid">
        <path fill="none" stroke="#B9CFD7" stroke-width=".5" class="highcharts-grid-line" d="M49 179.25h268m-268-61h268M49 55.75h268"/>
    </g>
    <path fill="none" class="highcharts-plot-border" d="M49 56h268v123H49z"/>
    <g class="highcharts-axis highcharts-xaxis">
        <path fill="none" class="highcharts-axis-line" stroke="#B9CFD7" stroke-width=".5" d="M49 179.25h268"/>
    </g>
    <g class="highcharts-axis highcharts-yaxis">
        <path fill="none" class="highcharts-axis-line" d="M49 56v123"/>
    </g>
    <g class="highcharts-series-group">
        <g class="highcharts-series highcharts-series-0 highcharts-line-series highcharts-color-undefined" transform="translate(49 56)" clip-path="url(#a)">
            <path fill="none" d="M2.627 14.514h32.844l32.843.492h98.529l32.843 7.134h32.843l32.844-.246" class="highcharts-graph" stroke="#007A2F" stroke-width="2" stroke-linejoin="round" stroke-linecap="round"/>
        </g>
        <g class="highcharts-markers highcharts-series-0 highcharts-line-series highcharts-color-undefined">
            <path fill="#007A2F" d="M55 71a4 4 0 1 1 0-.004zm33 0a4 4 0 1 1 0-.004zm33 0a4 4 0 1 1 0-.004zm33 0a4 4 0 1 1 0-.004zm33 0a4 4 0 1 1 0-.004zm32 0a4 4 0 1 1 0-.004zm33 7a4 4 0 1 1 0-.004zm33 0a4 4 0 1 1 0-.004zm33 0a4 4 0 1 1 0-.004z" class="highcharts-point"/>
        </g>
    </g>
    <text x="3" class="highcharts-title" y="22" color="#000" font-size="10" font-weight="700">
        <tspan>Anteil Landwirtschaftsfläche</tspan>
    </text>
    <text x="3" class="highcharts-subtitle" y="40" color="#000" font-size="10" font-weight="400">
        <tspan>gemäss Zonenplan</tspan>
    </text>
    <g class="highcharts-data-labels highcharts-series-0 highcharts-line-series highcharts-color-undefined">
        <text x="5" y="15" font-size="10" font-weight="400" color="#000" transform="translate(44 71)" class="highcharts-label highcharts-data-label highcharts-data-label-color-undefined">
            <tspan x="5" y="15" class="highcharts-text-outline" fill="#FFF" stroke="#FFF" stroke-width="2" stroke-linejoin="round">441</tspan><tspan x="5" y="15">441</tspan>
        </text>
        <text x="5" y="15" font-size="10" font-weight="400" color="#000" transform="translate(295 55)" class="highcharts-label highcharts-data-label highcharts-data-label-color-undefined">
            <tspan x="5" y="15" class="highcharts-text-outline" fill="#FFF" stroke="#FFF" stroke-width="2" stroke-linejoin="round">411</tspan><tspan x="5" y="15">411</tspan>
        </text>
    </g>
    <g class="highcharts-axis-labels highcharts-xaxis-labels" text-anchor="middle" color="#000" cursor="default" font-size="10">
        <text x="51.627" y="199">
            2008
        </text>
        <text x="117.314" y="199">
            2010
        </text>
        <text x="183" y="199">
            2012
        </text>
        <text x="248.686" y="199">
            2014
        </text>
        <text x="305.906" y="199">
            2016
        </text>
    </g>
    <g class="highcharts-axis-labels highcharts-yaxis-labels" text-anchor="end" color="#000" cursor="default" font-size="10">
        <text x="34" y="185">
            <tspan>0 ha</tspan>
        </text>
        <text x="34" y="123">
            <tspan>250 ha</tspan>
        </text>
        <text x="34" y="62">
            <tspan>500 ha</tspan>
        </text>
    </g>
    <text x="10" class="highcharts-credits" y="203" cursor="default" color="#000" font-size="10">
        <tspan>Quelle:</tspan>
    </text>
</svg>
